X:1162
L:1/4
Q:1/4=120
M:4/4
K:F
"F" A A A/>G/ F |"Bb" G G G/>F/ D |"F" C C F/>E/ F/G/ | A A"C" G2 |"F" A A A/>G/ F | 
"Bb" G G G/>F/ D |"F/C" C C F/>E/ F/G/ |"C7" A G"F" F2 || A2 F2 |"Bb" F2 D2 |"F" C C F/>E/ F/G/ | 
 A A"C" G2 |"F" A2 F2 |"Bb" F2 D2 |"F/C" C C F/>E/ F/G/ |"C7" A G"F" F2 |]

